;FLAVOR:Marlin
;TIME:956
;Filament used: 5.52697m, 0m
;Layer height: 0.6
;MINX:56.206
;MINY:120.268
;MINZ:0.3
;MAXX:118.904
;MAXY:152.739
;MAXZ:48.3
;Generated with Cura_SteamEngine main
T0
M104 S200
M105
M109 S200
M82 ;absolute extrusion mode
G28 ;Home
G1 Z15.0 F6000 ;Move the platform down 15mm
;Prime the extruder
G92 E0
G1 F200 E3
G92 E0
G92 E0
G92 E0
G1 F1500 E-6.5
;LAYER_COUNT:81
;LAYER:0
M107
G0 F3600 X61.354 Y122.908 Z0.3
G0 X56.207 Y131.487
;TYPE:SKIRT
G1 F1500 E0
G1 F900 X56.247 Y130.683 E0.18073
G1 X56.362 Y129.871 E0.36484
G1 X56.525 Y129.083 E0.5455
G1 X56.915 Y127.902 E0.82472
G1 X57.366 Y126.92 E1.06733
G1 X57.773 Y126.226 E1.24795
G1 X58.221 Y125.595 E1.42169
G1 X58.728 Y124.97 E1.60237
G1 X59.294 Y124.398 E1.78303
G1 X60.014 Y123.795 E1.99387
G1 X60.662 Y123.318 E2.17452
G1 X61.354 Y122.908 E2.3551
G1 X62.044 Y122.577 E2.52691
G1 X62.789 Y122.274 E2.70747
G1 X63.563 Y122.037 E2.8892
G1 X64.489 Y121.841 E3.1017
G1 X65.278 Y121.754 E3.27991
G1 X88.99 Y120.305 E8.61332
G1 X90.138 Y120.268 E8.87119
G1 X91.124 Y120.287 E9.09259
G1 X91.939 Y120.329 E9.27581
G1 X93.188 Y120.455 E9.55764
G1 X94.269 Y120.625 E9.80331
G1 X95.07 Y120.781 E9.98652
G1 X95.83 Y120.954 E10.16151
G1 X96.328 Y121.084 E10.27706
G1 X97.289 Y121.368 E10.50203
G1 X97.811 Y121.542 E10.62557
G1 X98.836 Y121.929 E10.87154
G1 X99.621 Y122.261 E11.06289
G1 X100.48 Y122.655 E11.27506
G1 X101.318 Y123.101 E11.48818
G1 X102.294 Y123.663 E11.74103
G1 X102.782 Y123.97 E11.87047
G1 X103.712 Y124.604 E12.12316
G1 X104.462 Y125.165 E12.33343
G1 X104.898 Y125.516 E12.45909
G1 X105.796 Y126.298 E12.72643
G1 X106.264 Y126.737 E12.87049
G1 X107.142 Y127.621 E13.1502
G1 X107.8 Y128.373 E13.37454
G1 X108.3 Y128.979 E13.55092
G1 X108.976 Y129.869 E13.80183
G1 X109.661 Y130.868 E14.07377
G1 X110.142 Y131.668 E14.28334
G1 X110.521 Y132.378 E14.46403
G1 X110.873 Y133.208 E14.66644
G1 X111.179 Y134.162 E14.89136
G1 X111.348 Y134.949 E15.07208
G1 X111.454 Y135.851 E15.27597
G1 X111.474 Y136.816 E15.49267
G1 X111.411 Y137.618 E15.67328
G1 X111.279 Y138.394 E15.85
G1 X111.091 Y139.176 E16.03056
G1 X110.787 Y140.055 E16.23937
G1 X110.389 Y140.918 E16.45273
G1 X110.076 Y141.466 E16.59442
G1 X109.653 Y142.142 E16.77344
G1 X109.219 Y142.794 E16.94929
G1 X108.758 Y143.438 E17.12709
G1 X108.031 Y144.379 E17.39406
G1 X107.326 Y145.178 E17.63328
G1 X106.66 Y145.887 E17.85167
G1 X105.813 Y146.703 E18.11572
G1 X104.745 Y147.622 E18.43204
G1 X103.897 Y148.269 E18.6715
G1 X103.288 Y148.701 E18.83914
G1 X102.236 Y149.392 E19.12171
G1 X101.144 Y150.006 E19.40296
G1 X100.577 Y150.3 E19.54635
G1 X99.671 Y150.729 E19.77141
G1 X98.553 Y151.2 E20.04377
G1 X97.988 Y151.41 E20.17909
G1 X96.881 Y151.776 E20.44085
G1 X96.045 Y152.002 E20.63528
G1 X94.944 Y152.261 E20.88921
G1 X94.424 Y152.363 E21.00817
G1 X93.419 Y152.526 E21.23675
G1 X92.417 Y152.642 E21.46321
G1 X91.866 Y152.687 E21.58732
G1 X90.766 Y152.739 E21.83455
G1 X89.508 Y152.739 E22.11698
G1 X65.257 Y151.255 E27.57166
G1 X64.457 Y151.166 E27.75237
G1 X63.169 Y150.863 E28.04943
G1 X62.169 Y150.497 E28.2885
G1 X60.95 Y149.872 E28.59605
G1 X60.05 Y149.263 E28.84001
G1 X59.432 Y148.747 E29.02076
G1 X58.73 Y148.037 E29.24492
G1 X58.081 Y147.237 E29.4762
G1 X57.637 Y146.566 E29.65683
G1 X57.206 Y145.73 E29.86799
G1 X56.961 Y145.178 E30.00358
G1 X56.672 Y144.427 E30.18424
G1 X56.458 Y143.651 E30.36496
G1 X56.319 Y142.911 E30.534
G1 X56.206 Y141.85 E30.77354
G1 X56.207 Y131.487 E33.1001
G0 F3600 X58.007 Y131.487
G1 F900 X58.095 Y130.358 E33.35433
G1 X58.289 Y129.456 E33.56147
G1 X58.594 Y128.547 E33.77673
G1 X59.001 Y127.678 E33.99216
G1 X59.55 Y126.81 E34.22274
G1 X60.124 Y126.11 E34.42597
G1 X60.933 Y125.348 E34.67548
G1 X61.725 Y124.774 E34.89508
G1 X62.619 Y124.281 E35.12428
G1 X63.462 Y123.947 E35.32785
G1 X64.162 Y123.748 E35.49123
G1 X64.857 Y123.606 E35.65049
G1 X65.388 Y123.551 E35.77034
G1 X89.308 Y122.092 E41.1505
G1 X90.023 Y122.072 E41.31108
G1 X91.033 Y122.085 E41.53785
G1 X91.823 Y122.125 E41.71544
G1 X92.794 Y122.224 E41.93457
G1 X93.72 Y122.357 E42.14459
G1 X94.433 Y122.487 E42.3073
G1 X95.613 Y122.75 E42.57872
G1 X96.989 Y123.156 E42.90081
G1 X98.145 Y123.591 E43.1781
G1 X98.871 Y123.897 E43.35498
G1 X99.694 Y124.275 E43.55831
G1 X100.685 Y124.808 E43.81093
G1 X101.585 Y125.332 E44.04474
G1 X102.548 Y125.989 E44.30646
G1 X103.547 Y126.727 E44.5853
G1 X104.366 Y127.433 E44.82806
G1 X105.032 Y128.05 E45.03188
G1 X105.837 Y128.862 E45.28858
G1 X106.588 Y129.727 E45.54576
G1 X106.905 Y130.116 E45.65842
G1 X107.442 Y130.825 E45.8581
G1 X108.137 Y131.828 E46.13205
G1 X108.599 Y132.596 E46.33327
G1 X108.93 Y133.224 E46.49264
G1 X109.249 Y134.03 E46.68725
G1 X109.461 Y134.707 E46.84652
G1 X109.596 Y135.404 E47.00591
G1 X109.661 Y136.139 E47.17156
G1 X109.672 Y136.849 E47.33098
G1 X109.552 Y137.89 E47.56624
G1 X109.34 Y138.75 E47.76509
G1 X109.107 Y139.404 E47.92096
G1 X108.706 Y140.262 E48.13359
G1 X108.127 Y141.187 E48.37858
G1 X107.726 Y141.788 E48.54079
G1 X107.301 Y142.38 E48.7044
G1 X106.639 Y143.237 E48.94752
G1 X105.815 Y144.163 E49.2258
G1 X105.263 Y144.734 E49.4041
G1 X104.608 Y145.365 E49.60829
G1 X103.61 Y146.224 E49.90391
G1 X102.856 Y146.8 E50.11693
G1 X102.023 Y147.385 E50.34546
G1 X101.294 Y147.856 E50.54031
G1 X100.315 Y148.408 E50.79263
G1 X99.501 Y148.823 E50.99776
G1 X98.675 Y149.201 E51.2017
G1 X97.651 Y149.626 E51.4506
G1 X96.368 Y150.05 E51.75397
G1 X95.34 Y150.323 E51.99276
G1 X94.341 Y150.553 E52.22291
G1 X93.303 Y150.721 E52.45898
G1 X92.01 Y150.878 E52.7514
G1 X90.723 Y150.939 E53.04066
G1 X89.569 Y150.939 E53.29974
G1 X65.367 Y149.458 E58.74339
G1 X64.662 Y149.375 E58.90276
G1 X63.679 Y149.136 E59.12988
G1 X62.794 Y148.806 E59.34193
G1 X61.861 Y148.321 E59.57801
G1 X61.067 Y147.774 E59.79447
G1 X60.531 Y147.309 E59.95378
G1 X59.927 Y146.658 E60.15315
G1 X59.482 Y146.104 E60.31268
G1 X59.103 Y145.504 E60.47201
G1 X58.852 Y145 E60.59842
G1 X58.607 Y144.448 E60.734
G1 X58.356 Y143.784 E60.89337
G1 X58.096 Y142.675 E61.1491
G1 X58.006 Y141.513 E61.41075
G1 X58.007 Y131.487 E63.66165
G0 F3600 X59.807 Y131.488
G1 F900 X59.874 Y130.622 E63.85665
G1 X60.05 Y129.843 E64.03595
G1 X60.371 Y128.991 E64.24036
G1 X60.631 Y128.45 E64.37511
G1 X61.018 Y127.849 E64.53559
G1 X61.512 Y127.261 E64.70801
G1 X62.101 Y126.718 E64.88786
G1 X62.777 Y126.239 E65.07386
G1 X63.425 Y125.89 E65.2391
G1 X64.47 Y125.512 E65.48859
G1 X65.498 Y125.347 E65.72233
G1 X89.21 Y123.898 E71.05575
G1 X90.26 Y123.87 E71.29156
G1 X90.773 Y123.877 E71.40675
G1 X91.795 Y123.932 E71.63652
G1 X92.831 Y124.043 E71.87044
G1 X93.605 Y124.163 E72.04629
G1 X94.271 Y124.291 E72.19854
G1 X95.157 Y124.493 E72.40256
G1 X96.433 Y124.87 E72.70127
G1 X97.454 Y125.253 E72.94609
G1 X98.12 Y125.533 E73.10829
G1 X98.888 Y125.886 E73.29805
G1 X99.779 Y126.363 E73.52494
G1 X100.622 Y126.854 E73.74396
G1 X101.534 Y127.476 E73.9918
G1 X102.435 Y128.144 E74.24361
G1 X103.191 Y128.796 E74.46774
G1 X103.801 Y129.363 E74.65471
G1 X104.509 Y130.079 E74.88077
G1 X105.091 Y130.744 E75.07917
G1 X105.623 Y131.398 E75.26844
G1 X106.002 Y131.904 E75.41038
G1 X106.625 Y132.805 E75.6563
G1 X107.056 Y133.523 E75.84431
G1 X107.49 Y134.421 E76.06823
G1 X107.738 Y135.238 E76.25991
G1 X107.865 Y136.086 E76.45242
G1 X107.868 Y136.867 E76.62776
G1 X107.775 Y137.611 E76.79609
G1 X107.456 Y138.707 E77.05236
G1 X107.024 Y139.556 E77.26622
G1 X106.601 Y140.232 E77.44525
G1 X106.143 Y140.911 E77.62913
G1 X105.753 Y141.445 E77.77758
G1 X105.256 Y142.084 E77.95932
G1 X104.627 Y142.796 E78.17262
G1 X104.153 Y143.298 E78.32762
G1 X103.391 Y144.038 E78.56609
G1 X102.401 Y144.882 E78.85815
G1 X101.815 Y145.332 E79.02403
G1 X101.206 Y145.764 E79.19166
G1 X100.369 Y146.311 E79.41614
G1 X99.486 Y146.81 E79.64385
G1 X98.743 Y147.191 E79.83131
G1 X98.155 Y147.464 E79.97685
G1 X97.012 Y147.942 E80.25499
G1 X95.743 Y148.354 E80.55453
G1 X95.104 Y148.527 E80.70316
G1 X93.993 Y148.785 E80.95922
G1 X93.015 Y148.944 E81.18167
G1 X91.858 Y149.083 E81.44329
G1 X90.786 Y149.134 E81.68423
G1 X89.624 Y149.14 E81.94511
G1 X65.477 Y147.662 E87.3764
G1 X64.882 Y147.585 E87.5111
G1 X63.992 Y147.335 E87.71864
G1 X63.433 Y147.12 E87.8531
G1 X62.761 Y146.762 E88.02404
G1 X62.096 Y146.293 E88.20673
G1 X61.423 Y145.656 E88.41477
G1 X60.894 Y144.982 E88.60713
G1 X60.497 Y144.27 E88.79015
G1 X60.252 Y143.718 E88.92574
G1 X60.046 Y143.154 E89.06054
G1 X59.874 Y142.383 E89.23789
G1 X59.806 Y141.514 E89.43358
G1 X59.807 Y131.488 E91.68448
G0 F3600 X61.607 Y131.488
G1 F900 X61.697 Y130.706 E91.8612
G1 X61.858 Y130.119 E91.99785
G1 X62.042 Y129.66 E92.10887
G1 X62.369 Y129.071 E92.26012
G1 X62.579 Y128.784 E92.33996
G1 X63.052 Y128.285 E92.49432
G1 X63.425 Y127.981 E92.60235
G1 X63.993 Y127.626 E92.75272
G1 X64.32 Y127.474 E92.83368
G1 X65.082 Y127.229 E93.01338
G1 X65.607 Y127.144 E93.13278
G1 X89.319 Y125.695 E98.46619
G1 X90.236 Y125.67 E98.67214
G1 X90.849 Y125.68 E98.80978
G1 X91.477 Y125.712 E98.95096
G1 X92.429 Y125.806 E99.16572
G1 X93.274 Y125.932 E99.35753
G1 X93.871 Y126.046 E99.49398
G1 X94.631 Y126.219 E99.66897
G1 X95.842 Y126.572 E99.95216
G1 X96.763 Y126.915 E100.17281
G1 X97.369 Y127.169 E100.32032
G1 X98.156 Y127.535 E100.51518
G1 X98.782 Y127.868 E100.67437
G1 X99.662 Y128.378 E100.90272
G1 X100.615 Y129.031 E101.16208
G1 X101.229 Y129.49 E101.33418
G1 X102.016 Y130.16 E101.56623
G1 X102.65 Y130.755 E101.76143
G1 X103.246 Y131.369 E101.95354
G1 X103.797 Y132.001 E102.14178
G1 X104.182 Y132.477 E102.27922
G1 X104.561 Y132.983 E102.42115
G1 X105.069 Y133.721 E102.6223
G1 X105.513 Y134.45 E102.81393
G1 X105.726 Y134.89 E102.92368
G1 X106.005 Y135.746 E103.12581
G1 X106.07 Y136.395 E103.27224
G1 X106.022 Y137.222 E103.45822
G1 X105.825 Y137.901 E103.61694
G1 X105.498 Y138.601 E103.7904
G1 X105.025 Y139.354 E103.99004
G1 X104.74 Y139.777 E104.10455
G1 X104.387 Y140.266 E104.23995
G1 X103.917 Y140.872 E104.41212
G1 X103.277 Y141.605 E104.63058
G1 X102.767 Y142.14 E104.79652
G1 X102.119 Y142.758 E104.99756
G1 X101.402 Y143.375 E105.20992
G1 X100.773 Y143.864 E105.38879
G1 X100.068 Y144.361 E105.58244
G1 X99.359 Y144.815 E105.77146
G1 X98.752 Y145.161 E105.92832
G1 X97.985 Y145.558 E106.12221
G1 X97.295 Y145.876 E106.29278
G1 X96.39 Y146.252 E106.5128
G1 X95.414 Y146.574 E106.74353
G1 X94.634 Y146.789 E106.92518
G1 X93.644 Y147.019 E107.15336
G1 X92.606 Y147.184 E107.38932
G1 X91.699 Y147.289 E107.59431
G1 X90.574 Y147.339 E107.84713
G1 X89.593 Y147.334 E108.06737
G1 X65.587 Y145.865 E113.46694
G1 X64.951 Y145.748 E113.61212
G1 X64.526 Y145.616 E113.71203
G1 X63.924 Y145.345 E113.86025
G1 X63.147 Y144.826 E114.07002
G1 X62.603 Y144.25 E114.2479
G1 X62.25 Y143.782 E114.3795
G1 X61.897 Y142.987 E114.57479
G1 X61.746 Y142.548 E114.67901
G1 X61.606 Y141.747 E114.86157
G1 X61.607 Y131.488 E117.16477
G0 F3600 X63.407 Y131.488
G1 F900 X63.475 Y130.985 E117.27873
G1 X63.713 Y130.33 E117.43519
G1 X64.032 Y129.847 E117.56514
G1 X64.562 Y129.376 E117.72432
G1 X65.079 Y129.106 E117.85527
G1 X65.717 Y128.941 E118.00321
G1 X89.459 Y127.49 E123.34338
G1 X90.211 Y127.47 E123.51227
G1 X90.758 Y127.478 E123.63508
G1 X91.386 Y127.51 E123.77626
G1 X92.291 Y127.602 E123.98048
G1 X92.942 Y127.701 E124.12832
G1 X93.472 Y127.801 E124.2494
G1 X94.232 Y127.974 E124.42439
G1 X95.306 Y128.292 E124.67586
G1 X96.072 Y128.577 E124.85935
G1 X96.618 Y128.805 E124.99219
G1 X97.311 Y129.124 E125.16346
G1 X97.967 Y129.474 E125.33039
G1 X98.725 Y129.918 E125.52761
G1 X99.537 Y130.473 E125.74842
G1 X100.151 Y130.932 E125.92053
G1 X100.87 Y131.55 E126.13338
G1 X101.365 Y132.015 E126.28585
G1 X101.857 Y132.517 E126.44366
G1 X102.402 Y133.138 E126.62916
G1 X102.719 Y133.527 E126.74181
G1 X103.142 Y134.093 E126.90045
G1 X103.613 Y134.783 E127.08801
G1 X103.97 Y135.377 E127.2436
G1 X104.195 Y135.933 E127.37826
G1 X104.251 Y136.186 E127.43643
G1 X104.261 Y136.754 E127.56397
G1 X104.154 Y137.23 E127.6735
G1 X103.972 Y137.646 E127.77544
G1 X103.532 Y138.348 E127.96144
G1 X103.229 Y138.797 E128.08305
G1 X102.912 Y139.233 E128.20408
G1 X102.462 Y139.809 E128.36818
G1 X101.905 Y140.439 E128.55697
G1 X101.546 Y140.816 E128.67384
G1 X100.945 Y141.393 E128.86089
G1 X100.193 Y142.039 E129.08346
G1 X99.732 Y142.396 E129.21436
G1 X99.091 Y142.85 E129.39071
G1 X98.468 Y143.251 E129.55704
G1 X97.861 Y143.597 E129.7139
G1 X97.227 Y143.925 E129.87416
G1 X96.605 Y144.213 E130.02805
G1 X95.73 Y144.574 E130.24055
G1 X94.802 Y144.879 E130.45986
G1 X94.13 Y145.06 E130.6161
G1 X93.33 Y145.244 E130.80039
G1 X92.399 Y145.396 E131.01218
G1 X91.526 Y145.495 E131.20943
G1 X90.574 Y145.539 E131.42338
G1 X89.758 Y145.539 E131.60658
G1 X65.697 Y144.068 E137.0185
G1 X65.06 Y143.897 E137.16658
G1 X64.456 Y143.562 E137.32164
G1 X63.941 Y143.046 E137.48531
G1 X63.787 Y142.809 E137.54876
G1 X63.491 Y142.142 E137.71259
G1 X63.406 Y141.514 E137.85487
G1 X63.407 Y131.488 E140.10576
G1 F1500 E133.60576
;MESH:3DBenchy (1).stl
G0 F3600 X64.834 Y135.299
;TYPE:WALL-OUTER
G1 F1500 E140.10576
G1 F1058.8 X64.784 Y136.319 E140.30065
G1 X64.801 Y137.289 E140.48578
G1 F1500 E133.98578
G0 F3600 X70.27 Y136.55
G0 X70.994 Y138.086
G1 F1500 E140.48578
G1 F547.3 X71.03 Y138.509 E140.64251
G1 F551.8 X70.998 Y138.879 E140.77851
G0 F3600 X70.796 Y140.064
G0 X72.514 Y141.25
G0 X74.979 Y140.103
G0 X74.928 Y139.049
G1 F535.9 X74.939 Y138.205 E141.09676
G0 F3600 X75.26 Y136.983
G0 X77.158 Y137.395
G1 F980 X77.689 Y137.537 E141.21008
G1 F960.9 X77.898 Y137.676 E141.26287
G0 F3600 X75.262 Y136.886
G0 X77.846 Y134.945
G1 F1058.8 X77.095 Y135.232 E141.41629
G1 X75.874 Y134.235 E141.7171
G1 X75.895 Y133.896 E141.78192
G0 F3600 X76.02 Y131.93
G0 X78.478 Y131.554
G0 X80.446 Y134.131
G1 F962.6 X80.494 Y134.481 E141.85607
G1 F956.9 X80.465 Y135.384 E142.04685
G1 F884.8 X80.354 Y135.964 E142.18171
G1 F886.2 X80.471 Y136.396 E142.28375
G1 F999.4 X80.591 Y137.214 E142.45091
G1 F1058.8 X80.62 Y137.821 E142.56687
G1 X80.596 Y138.222 E142.64353
G0 F3600 X80.187 Y140.758
G0 X86.358 Y141.672
G0 X88.413 Y141.37
G0 X88.357 Y139.234
G1 F1058.8 X88.405 Y138.845 E142.71833
G0 F3600 X88.413 Y141.37
G0 X90.601 Y141.335
G0 X92.011 Y140.492
G1 F763.4 X92.75 Y140.028 E142.94928
G1 F731 X92.883 Y139.744 E143.03595
G1 F718.1 X93.029 Y139.202 E143.1939
G1 F721.6 X92.948 Y138.811 E143.3057
G1 F768.5 X92.805 Y138.384 E143.4241
G1 F801.2 X92.529 Y137.804 E143.58609
G1 F820.7 X92.252 Y137.224 E143.74434
G1 F929.4 X92.314 Y136.279 E143.95022
G1 F1056.8 X92.376 Y135.46 E144.10727
G0 F3600 X92.35 Y133.302
G0 X90.963 Y131.71
;TYPE:WALL-INNER
G1 F626.7 X90.628 Y131.245 E144.29205
G1 F870.5 X90.391 Y130.965 E144.37719
G1 F898 X90.208 Y131.183 E144.44124
G1 F639.6 X89.863 Y131.701 E144.63786
G1 X90.086 Y132.267 E144.83006
G1 F898 X90.147 Y132.513 E144.88708
G1 F1023.4 X90.372 Y132.595 E144.93437
G1 X90.597 Y132.518 E144.98132
G1 F870.5 X90.706 Y132.205 E145.05825
G1 F626.7 X90.963 Y131.71 E145.23808
G0 F3600 X85.201 Y131.271
G1 F995.1 X85.453 Y131.362 E145.29248
G1 X86.017 Y131.649 E145.42098
G1 X86.413 Y131.916 E145.51795
G1 X86.849 Y132.284 E145.6338
G1 X87.177 Y132.631 E145.73076
G1 X87.45 Y133.006 E145.82495
G1 X87.996 Y132.671 E145.95502
G1 F692 X88.359 Y131.79 E146.23323
G1 F600.7 X87.977 Y131.458 E146.40348
G1 F816.5 X87.594 Y131.126 E146.52891
G1 F995.1 X85.201 Y131.271 E147.01571
G0 F3600 X87.342 Y134.15
G0 X88.17 Y134.78
;TYPE:WALL-OUTER
G1 F924.1 X88.319 Y134.531 E147.07915
G1 F904 X88.47 Y134.38 E147.12688
G1 F900 X88.922 Y134.151 E147.24064
G1 X89.326 Y134.091 E147.33233
G1 X89.648 Y134.129 E147.40512
G1 X90.057 Y134.31 E147.50554
G1 X90.383 Y134.601 E147.60364
G1 X90.837 Y134.243 E147.73345
G1 X91.062 Y134.144 E147.78863
G1 X91.386 Y134.091 E147.86234
G1 X91.666 Y134.114 E147.92541
G1 X92.009 Y134.236 E148.00714
G1 F946.8 X92.322 Y134.847 E148.15365
G1 F1007.5 X92.351 Y135.023 E148.18942
G1 F990.8 X92.469 Y134.595 E148.27996
G1 F944.6 X92.585 Y134.379 E148.3324
G1 F912.2 X92.746 Y134.215 E148.38331
G1 F900 X93.03 Y134.112 E148.45114
G1 X93.617 Y134.121 E148.58294
G1 X94.072 Y134.289 E148.69183
G1 X94.492 Y134.647 E148.81573
G1 X94.757 Y135.153 E148.94396
G1 X94.909 Y134.835 E149.02309
G1 X95.3 Y134.388 E149.15642
